assets/icons/qvision/replay_circle_filled.svg

<svg xmlns="http://www.w3.org/2000/svg" height="24" viewBox="0 0 24 24" width="24"><path d="M0 0h24v24H0V0z" fill="none"/><path d="M12 2C6.48 2 2 6.48 2 12s4.48 10 10 10 10-4.48 10-10S17.52 2 12 2zm6 10c0 3.31-2.69 6-6 6s-6-2.69-6-6h2c0 2.21 1.79 4 4 4s4-1.79 4-4-1.79-4-4-4v3L8 7l4-4v3c3.31 0 6 2.69 6 6z" fill-rule="evenodd"/></svg>

<svg width="24" height="24" viewBox="0 0 24 24" fill="none" xmlns="http://www.w3.org/2000/svg">
<g clip-path="url(#clip0_147_1632)">
<path fill-rule="evenodd" clip-rule="evenodd" d="M12 2C6.48 2 2 6.48 2 12C2 17.52 6.48 22 12 22C17.52 22 22 17.52 22 12C22 6.48 17.52 2 12 2ZM18 12C18 15.31 15.31 18 12 18C8.69 18 6 15.31 6 12H8C8 14.21 9.79 16 12 16C14.21 16 16 14.21 16 12C16 9.79 14.21 8 12 8V11L8 7L12 3V6C15.31 6 18 8.69 18 12Z" fill="#323232"/>
</g>
<defs>
<clipPath id="clip0_147_1632">
<rect width="24" height="24" fill="white"/>
</clipPath>
</defs>
</svg>
